src/resources/assets/list.svg

<svg xmlns="http://www.w3.org/2000/svg" width="16" height="16"><path d="M 2 3.5 C 2 3.222656 2.222656 3 2.5 3 L 10.5 3 C 10.777344 3 11 3.222656 11 3.5 C 11 3.777344 10.777344 4 10.5 4 L 2.5 4 C 2.222656 4 2 3.777344 2 3.5 Z M 2 11.5 C 2 11.222656 2.222656 11 2.5 11 L 9.5 11 C 9.777344 11 10 11.222656 10 11.5 C 10 11.777344 9.777344 12 9.5 12 L 2.5 12 C 2.222656 12 2 11.777344 2 11.5 Z M 2.5 7 C 2.222656 7 2 7.222656 2 7.5 C 2 7.777344 2.222656 8 2.5 8 L 13.5 8 C 13.777344 8 14 7.777344 14 7.5 C 14 7.222656 13.777344 7 13.5 7 Z M 2.5 7" fill="#ddd"/></svg>

<svg xmlns="http://www.w3.org/2000/svg" width="16" height="16"><path d="M2 3.5c0-.277.223-.5.5-.5h8c.277 0 .5.223.5.5s-.223.5-.5.5h-8a.498.498 0 01-.5-.5zm0 8c0-.277.223-.5.5-.5h7c.277 0 .5.223.5.5s-.223.5-.5.5h-7a.498.498 0 01-.5-.5zM2.5 7c-.277 0-.5.223-.5.5s.223.5.5.5h11c.277 0 .5-.223.5-.5s-.223-.5-.5-.5zm0 0" fill="#ddd"/></svg>
